X:1
T:Ladies Breast Knot
L:1/8
M:2/4
I:linebreak $
K:G
V:1 treble 
V:1
 GB BA/G/ | F/G/A/B/ A2 | Be ed | c2 B>A | GB BA/G/ | F/G/A/B/ A/A/B/c/ | d>e dA | F2 D2 :: %8
 f>e f>e |$ fg a2 | ed ed | ef g2 | f>e f>e | fg a2 | edcB | A2 A2 :| %16
